includes/img/cd-icon-phone.svg

<svg width="32" height="32" viewBox="0 0 24 24" xmlns="http://www.w3.org/2000/svg"><path fill="#D5DDDF" d="M7.16 4.56C8.33 4 9.49 3.41 10.65 2.83c.18 1.81 3.44 5.24.15 5.72-.31-.47-.92-1.42-1.23-1.9l.15-2.37c-1.06 3.99 1.12 8.29 2.66 11.97 1.16-.31 2.32-.63 3.48-.96.4 2.02 2.9 4.6.08 5.93-.32-1.17-.94-3.5-1.26-4.67l-.66 1.59c.39.79 1.16 2.38 1.55 3.17-4.56-.48-6.82-4.98-8.17-8.82-.99-2.55-1.02-5.33-.24-7.93z"/></svg>

<?xml version="1.0" encoding="UTF-8" ?>
<!DOCTYPE svg PUBLIC "-//W3C//DTD SVG 1.1//EN" "http://www.w3.org/Graphics/SVG/1.1/DTD/svg11.dtd">
<svg width="24pt" height="24pt" viewBox="0 0 24 24" version="1.1" xmlns="http://www.w3.org/2000/svg">
<g id="#d4dcdeff">
<path fill="#D5DDDF" opacity="1.00" d=" M 7.16 4.56 C 8.33 4.00 9.49 3.41 10.65 2.83 C 10.83 4.64 14.09 8.07 10.80 8.55 C 10.49 8.08 9.88 7.13 9.57 6.65 L 9.72 4.28 C 8.66 8.27 10.84 12.57 12.38 16.25 C 13.54 15.94 14.70 15.62 15.86 15.29 C 16.26 17.31 18.76 19.89 15.94 21.22 C 15.62 20.05 15.00 17.72 14.68 16.55 C 14.46 17.08 14.24 17.61 14.02 18.14 C 14.41 18.93 15.18 20.52 15.57 21.31 C 11.01 20.83 8.75 16.33 7.40 12.49 C 6.41 9.94 6.38 7.16 7.16 4.56 Z" />
</g>
</svg>
